src/packages/tokens/img/usdt.svg

<svg width="24" height="24" viewBox="0 0 24 24" fill="none" xmlns="http://www.w3.org/2000/svg">
<g clip-path="url(#clip0_8_2920)">
<path d="M24 12C24 18.6276 18.6276 24 12 24C5.37264 24 0 18.6276 0 12C0 5.37252 5.37264 0 12 0C18.6276 0 24 5.37252 24 12Z" fill="#1BA27A"/>
<path d="M17.6294 6.05127H6.2666V8.79447H10.5764V12.8265H13.3196V8.79447H17.6294V6.05127Z" fill="white"/>
<path d="M11.9733 13.256C8.40813 13.256 5.51769 12.6917 5.51769 11.9956C5.51769 11.2996 8.40801 10.7352 11.9733 10.7352C15.5385 10.7352 18.4288 11.2996 18.4288 11.9956C18.4288 12.6917 15.5385 13.256 11.9733 13.256ZM19.2219 12.2057C19.2219 11.3081 15.9766 10.5806 11.9733 10.5806C7.97013 10.5806 4.72461 11.3081 4.72461 12.2057C4.72461 12.9962 7.24113 13.6547 10.5758 13.8006V19.5887H13.3188V13.8029C16.6791 13.6616 19.2219 13.0002 19.2219 12.2057Z" fill="white"/>
</g>
<defs>
<clipPath id="clip0_8_2920">
<rect width="24" height="24" fill="white"/>
</clipPath>
</defs>
</svg>

<svg xmlns="http://www.w3.org/2000/svg" width="24" height="24" fill="none" xmlns:v="https://vecta.io/nano"><g clip-path="url(#A)"><path d="M24 12c0 6.628-5.372 12-12 12S0 18.628 0 12 5.373 0 12 0s12 5.373 12 12z" fill="#1ba27a"/><g fill="#fff"><path d="M17.629 6.051H6.267v2.743h4.31v4.032h2.743V8.794h4.31V6.051z"/><path d="M11.973 13.256c-3.565 0-6.456-.564-6.456-1.26s2.89-1.26 6.456-1.26 6.455.564 6.455 1.26-2.89 1.26-6.455 1.26zm7.249-1.05c0-.898-3.245-1.625-7.249-1.625s-7.249.727-7.249 1.625c0 .79 2.517 1.449 5.851 1.595v5.788h2.743v-5.786c3.36-.141 5.903-.803 5.903-1.597z"/></g></g><defs><clipPath id="A"><path fill="#fff" d="M0 0h24v24H0z"/></clipPath></defs></svg>
